X: 75
T: Ave domina sancta Maria
C: Gaspar van Weerbeke
%%abc-version 2.0
%%abcx-abcm2ps-target-version 5.9.1 (29 Sep 2008)
%%abc-creator hum2abc beta
%%abcx-conversion-date 2022/03/06 13:05:57
%%abc-copyright Copyright 2008, Pavanello, Agnese
%%abc-edited-by Mair-Gruber, Roland
%%humdrum-veritas 1789662666
%%humdrum-veritas-data 3081541156
%%linebreak <none>
%%barnumbers 0
L: 1/4
M: 2/2
N: Derived from Gas0401-Ave_domina_sancta_Maria.krn
%%staves [1 2 3 4]
V: 1 clef=treble
V: 2 clef=treble-8
V: 3 clef=treble-8
V: 4 clef=bass
K: C
[V:1] E4 | 
[V:2] B4 | 
[V:3] E4 | 
[V:4] E,4 | 
[V:1] E4 | 
[V:2] c4 | 
[V:3] G4 | 
[V:4] C,4 | 
[V:1] E4 | 
[V:2] c4 | 
[V:3] G4 | 
[V:4] C,4 | 
[V:1] E2E2 | 
[V:2] c2c2 | 
[V:3] E2E2 | 
[V:4] C,2C,2 | 
[V:1] G4 | 
[V:2] B4 | 
[V:3] D4 | 
[V:4] G,,4 | 
[V:1] G2G2 | 
[V:2] c2Bd- | 
[V:3] E2G2 | 
[V:4] C,2G,,2 | 
[V:1] F3E/D/ | 
[V:2] dc/B/AB | 
[V:3] A3G/F/ | 
[V:4] D,4 | 
[V:1] E2D2- | 
[V:2] c2A2- | 
[V:3] G2F2 | 
[V:4] C,2D,2 | 
[V:1] D2^C2 | 
[V:2] A4 | 
[V:3] E4 | 
[V:4] A,,4 | 
[V:1] D2E2 | 
[V:2] z2GE | 
[V:3] D2G2 | 
[V:4] B,,2C,3/B,,/ | 
[V:1] FG>FA- | 
[V:2] CD>EF- | 
[V:3] AB2c | 
[V:4] A,,G,,2F,,- | 
[V:1] A/G/F/E/^F2 | 
[V:2] FD2d | 
[V:3] dBA2 | 
[V:4] F,,G,,D,2 | 
[V:1] G4 | 
[V:2] B2c2 | 
[V:3] G4 | 
[V:4] E,3D,/C,/ | 
[V:1] z4 | 
[V:2] dcd2 | 
[V:3] z2F2 | 
[V:4] B,,C,2B,, | 
[V:1] z2G2 | 
[V:2] e2c2- | 
[V:3] E2G2 | 
[V:4] C,2E,2 | 
[V:1] F2D2 | 
[V:2] c2B2 | 
[V:3] A2F2 | 
[V:4] D,4 | 
[V:1] E4 | 
[V:2] c4 | 
[V:3] G2A2 | 
[V:4] C,4 | 
[V:1] D2E2 | 
[V:2] z2G2- | 
[V:3] B2c2 | 
[V:4] G,,2C,2 | 
[V:1] DCD2 | 
[V:2] GCG2- | 
[V:3] BAB3/A/ | 
[V:4] G,,A,,G,,2 | 
[V:1] B,G,A,3/B,/ | 
[V:2] GF/E/D2 | 
[V:3] G>EF2 | 
[V:4] zG,,D,2 | 
[V:1] C>DE2- | 
[V:2] C2z2 | 
[V:3] G4 | 
[V:4] E,4 | 
[V:1] E2D2 | 
[V:2] z2D2 | 
[V:3] A4 | 
[V:4] F,4 | 
[V:1] E4 | 
[V:2] G3A | 
[V:3] B2c2 | 
[V:4] E,4- | 
[V:1] z2G2- | 
[V:2] B2E2 | 
[V:3] B4 | 
[V:4] E,4 | 
[V:1] G2G2 | 
[V:2] e2e2 | 
[V:3] B2B2 | 
[V:4] E,2E,2 | 
[V:1] G2G2 | 
[V:2] e2e2 | 
[V:3] B2B2 | 
[V:4] E,2E,2 | 
[V:1] A3G/F/ | 
[V:2] c2A2 | 
[V:3] A>Bcd | 
[V:4] F,3E,/D,/ | 
[V:1] GA/B/c2 | 
[V:2] zGAF | 
[V:3] B2A2 | 
[V:4] E,2A,,2 | 
[V:1] B2A2- | 
[V:2] G2E2 | 
[V:3] d2c2 | 
[V:4] G,,2A,,2 | 
[V:1] A2^G2 | 
[V:2] z2e2 | 
[V:3] B4 | 
[V:4] E,4 | 
[V:1] A4 | 
[V:2] c>BAG/F/ | 
[V:3] A4 | 
[V:4] A,,4 | 
[V:1] z4 | 
[V:2] E>FGA- | 
[V:3] z2D2 | 
[V:4] C,2B,,2 | 
[V:1] z4 | 
[V:2] A^GA3/=G/ | 
[V:3] D2E2- | 
[V:4] B,,2A,,C,- | 
[V:1] z2c2 | 
[V:2] ED2C | 
[V:3] EG2^F | 
[V:4] C,/B,,/A,,/G,,/A,,2 | 
[V:1] B2B2 | 
[V:2] D2G3/F/ | 
[V:3] G>FD2 | 
[V:4] G,,4 | 
[V:1] Ac>BA/G/ | 
[V:2] E2zA- | 
[V:3] z2c2 | 
[V:4] C,2F,3/E,/ | 
[V:1] F2E2- | 
[V:2] A/G/A/B/c2 | 
[V:3] d2G2 | 
[V:4] D,2C,3/B,,/ | 
[V:1] E2FG- | 
[V:2] zA2D- | 
[V:3] Ac>Bd- | 
[V:4] A,,3G,, | 
[V:1] GF/E/D2 | 
[V:2] DE/F/G2 | 
[V:3] d/ c/c2B | 
[V:4] B,,C,G,,2 | 
[V:1] C2z2 | 
[V:2] CEFG | 
[V:3] c>BAG- | 
[V:4] A,,C,D,E,- | 
[V:1] z4 | 
[V:2] Bcd2 | 
[V:3] GF/E/D2 | 
[V:4] E,/ D,/C,2B,, | 
[V:1] E2D2 | 
[V:2] Gc2B | 
[V:3] C2z2 | 
[V:4] C,2D,2 | 
[V:1] E2FG- | 
[V:2] c>BAG- | 
[V:3] z4 | 
[V:4] C,E,D,E, | 
[V:1] GF/E/F2 | 
[V:2] GcA3/B/ | 
[V:3] E2D2 | 
[V:4] C,2D,2 | 
[V:1] E2z2 | 
[V:2] c2dB | 
[V:3] E2FG- | 
[V:4] C,E,D,E, | 
[V:1] z2A2 | 
[V:2] e2df | 
[V:3] GF/E/F2 | 
[V:4] C,2D,2 | 
[V:1] G2A2 | 
[V:2] edf3/e/ | 
[V:3] E2z2 | 
[V:4] E,G,2F, | 
[V:1] Bc2B/A/ | 
[V:2] dcz2 | 
[V:3] z2A2 | 
[V:4] G,A,F,2 | 
[V:1] B2A2 | 
[V:2] d2cA | 
[V:3] G2Ac | 
[V:4] G,2zF, | 
[V:1] G4 | 
[V:2] B2G2 | 
[V:3] Bd2^c | 
[V:4] G,/F,/E,/D,/E,2 | 
[V:1] F2A2- | 
[V:2] A2F2 | 
[V:3] d3A | 
[V:4] D,4 | 
[V:1] A^GG^F | 
[V:2] E4 | 
[V:3] B4 | 
[V:4] z2E,2 | 
[V:1] A4 | 
[V:2] zF2E/D/ | 
[V:3] A4 | 
[V:4] F,/E,/D,/C,/D,C,/B,,/ | 
[V:1] c2BB | 
[V:2] EFG2 | 
[V:3] z4 | 
[V:4] A,,2G,,G, | 
[V:1] c2d2 | 
[V:2] AGF2 | 
[V:3] c2BB | 
[V:4] F,E,D,2 | 
[V:1] e>d c/B/A- | 
[V:2] EG2F/E/ | 
[V:3] c4 | 
[V:4] C,>D,E,F,- | 
[V:1] Ad>cB/A/ | 
[V:2] DAB2 | 
[V:3] d4 | 
[V:4] F,E,/D,/G,2 | 
[V:1] !fermata!G4 ||  
[V:2] !fermata!B4 ||  
[V:3] !fermata!e4 ||  
[V:4] !fermata!E,4 ||  
[V:1] z4 | 
[V:2] z4 | 
[V:3] E3F | 
[V:4] C,4 | 
[V:1] z4 | 
[V:2] z4 | 
[V:3] G>ABc- | 
[V:4] C,2B,,A,, | 
[V:1] z4 | 
[V:2] z4 | 
[V:3] c/ B/A2^G | 
[V:4] C,D,B,,2 | 
[V:1] E3F | 
[V:2] z4 | 
[V:3] A4 | 
[V:4] A,,4 | 
[V:1] G>ABc- | 
[V:2] z4 | 
[V:3] e2dc | 
[V:4] z4 | 
[V:1] c/B/A2^G | 
[V:2] z4 | 
[V:3] A2B2 | 
[V:4] z4 | 
[V:1] A4 | 
[V:2] c3d | 
[V:3] A4 | 
[V:4] F,4 | 
[V:1] G2FA- | 
[V:2] e2A3/B/ | 
[V:3] B2d2 | 
[V:4] E,2D,3/C,/ | 
[V:1] AG/F/E2 | 
[V:2] c2C2 | 
[V:3] c4 | 
[V:4] A,,4 | 
[V:1] D2zD- | 
[V:2] G3F/E/ | 
[V:3] B4 | 
[V:4] z2G,,2- | 
[V:1] DEDG- | 
[V:2] DG2F/E/ | 
[V:3] B4 | 
[V:4] G,,2G,,2 | 
[V:1] GF/E/D2 | 
[V:2] D2G2 | 
[V:3] B2B2 | 
[V:4] G,,2G,,2 | 
[V:1] C2E2 | 
[V:2] C2zG- | 
[V:3] c2c2 | 
[V:4] A,,2C,2 | 
[V:1] D2G2- | 
[V:2] GB2d- | 
[V:3] d2B2 | 
[V:4] B,,2G,,2 | 
[V:1] G2^F2 | 
[V:2] dc/B/Ad | 
[V:3] A4 | 
[V:4] D,4 | 
[V:1] G4 | 
[V:2] B2G2 | 
[V:3] G4 | 
[V:4] E,3D, | 
[V:1] z2G2 | 
[V:2] c2d2- | 
[V:3] z2B2 | 
[V:4] C,B,,/A,,/G,,2- | 
[V:1] G2G2 | 
[V:2] dcB2 | 
[V:3] B2B2 | 
[V:4] G,,2G,,2 | 
[V:1] A3G | 
[V:2] A3B | 
[V:3] c3B | 
[V:4] F,,3G,, | 
[V:1] FEE2- | 
[V:2] c4 | 
[V:3] A2G2 | 
[V:4] A,,B,,C,2 | 
[V:1] E2D2 | 
[V:2] A4 | 
[V:3] F4 | 
[V:4] D,4 | 
[V:1] E4 | 
[V:2] z2A2 | 
[V:3] E4 | 
[V:4] A,,3B,, | 
[V:1] z2G2 | 
[V:2] G2c2 | 
[V:3] z2E2 | 
[V:4] C,D,E,F, | 
[V:1] G2G2 | 
[V:2] B2c2 | 
[V:3] E2E2 | 
[V:4] G,4 | 
[V:1] F3E/D/ | 
[V:2] d2zB | 
[V:3] D4 | 
[V:4] A,2D,2 | 
[V:1] E2D2- | 
[V:2] c2A2- | 
[V:3] G2F2 | 
[V:4] C,2D,2 | 
[V:1] D2^C2 | 
[V:2] A4 | 
[V:3] E4 | 
[V:4] A,,4 | 
[V:1] D4 | 
[V:2] F4 | 
[V:3] D4 | 
[V:4] z4 | 
[V:1] z4 | 
[V:2] z4 | 
[V:3] D3E- | 
[V:4] G,,2B,,C, | 
[V:1] z2D2- | 
[V:2] z4 | 
[V:3] EFG2 | 
[V:4] A,,2G,,2 | 
[V:1] DE2F | 
[V:2] z4 | 
[V:3] FGA2 | 
[V:4] D,C,>A,,D, | 
[V:1] G2FG | 
[V:2] d3c | 
[V:3] GBAG- | 
[V:4] B,,G,,D,E, | 
[V:1] A2GB | 
[V:2] d2BG | 
[V:3] GFGd- | 
[V:4] D,2zG, | 
[V:1] AG2^F | 
[V:2] AB/c/d2 | 
[V:3] dBA2 | 
[V:4] F,G,D,2 | 
[V:1] G4 | 
[V:2] B2G2 | 
[V:3] G2B2 | 
[V:4] z2E,2 | 
[V:1] z2E2 | 
[V:2] E>FG2 | 
[V:3] c4 | 
[V:4] C,4 | 
[V:1] F4 | 
[V:2] z2d2 | 
[V:3] A4 | 
[V:4] D,4 | 
[V:1] E4 | 
[V:2] c3B/A/ | 
[V:3] z2E2- | 
[V:4] A,,4 | 
[V:1] G2C2 | 
[V:2] B2A2- | 
[V:3] E2E2 | 
[V:4] G,,2A,,2 | 
[V:1] D4 | 
[V:2] A2^G2 | 
[V:3] D4 | 
[V:4] B,,4 | 
[V:1] C4 | 
[V:2] A4 | 
[V:3] E4 | 
[V:4] A,,4 | 
[V:1] E2D3/E/ | 
[V:2] G2B2 | 
[V:3] z2G2 | 
[V:4] C,2G,,2 | 
[V:1] F2E3/F/ | 
[V:2] A>Bc2 | 
[V:3] F>GA2 | 
[V:4] D,2A,,2 | 
[V:1] G2FA- | 
[V:2] B>cd2 | 
[V:3] G2A3/B/ | 
[V:4] E,2D,F,- | 
[V:1] AG/F/EF- | 
[V:2] AcBd- | 
[V:3] c>BGA- | 
[V:4] F,C,E,D, | 
[V:1] F/E<GF/E- | 
[V:2] dc3 | 
[V:3] AG/F/E2 | 
[V:4] F,C,3 | 
[V:1] ED/C/D2 | 
[V:2] A4 | 
[V:3] F4 | 
[V:4] D,4 | 
[V:1] E4- | 
[V:2] A2Bc | 
[V:3] E4- | 
[V:4] A,,2G,,A,,- | 
[V:1] E4- | 
[V:2] Bc2B/A/ | 
[V:3] E4- | 
[V:4] A,,G,,/F,,/G,,A,, | 
[V:1] E4- | 
[V:2] B2c2 | 
[V:3] E4- | 
[V:4] E,4- | 
[V:1] E4 |]  
[V:2] B4 |]  
[V:3] E4 |]  
[V:4] E,4 |]  


